priv/static/images/frameworks/angular.svg

<svg
  width="128"
  height="128"
  viewBox="0 0 128 128"
  fill="none"
  xmlns="http://www.w3.org/2000/svg"
>
  <path
    d="M52.8642 64.0004H76.1442L63.7692 38.1234L52.8642 64.0004ZM63.8102 1.02637L4.55322 21.8804L13.9162 99.5174L63.8732 126.974L114.087 99.1464L123.447 21.5114L63.8102 1.02637ZM48.0442 75.0004L40.7792 93.1764L27.1982 93.2324L63.8062 12.1534L63.7362 12.0004H63.6722L63.6732 11.8674L63.7362 12.0004H63.8772L64.0002 11.7264V12.0004H63.8762L63.8072 12.1534L101.996 93.5704L88.9222 93.2834L80.8802 74.7034L63.7072 74.7854"
    fill="#C4473A"
  />
</svg>

<svg xmlns="http://www.w3.org/2000/svg" width="128" height="128" fill="none"><path fill="#C4473A" d="M52.864 64h23.28L63.77 38.123zM63.81 1.026 4.553 21.88l9.363 77.637 49.957 27.457 50.214-27.828 9.36-77.635zM48.044 75 40.78 93.176l-13.58.056 36.607-81.079-.07-.153h-.064l.001-.133.063.133h.141l.123-.274V12h-.124l-.069.153 38.189 81.417-13.074-.287-8.042-18.58-17.173.082"/></svg>
